app/assets/images/heroicons/micro/h3.svg

<svg width="16" height="16" viewBox="0 0 16 16" fill="none" xmlns="http://www.w3.org/2000/svg">
<path fill-rule="evenodd" clip-rule="evenodd" d="M1.75 3C2.16421 3 2.5 3.33579 2.5 3.75V7.25H6.5V3.75C6.5 3.33579 6.83579 3 7.25 3C7.66421 3 8 3.33579 8 3.75V12.25C8 12.6642 7.66421 13 7.25 13C6.83579 13 6.5 12.6642 6.5 12.25V8.75H2.5V12.25C2.5 12.6642 2.16421 13 1.75 13C1.33579 13 1 12.6642 1 12.25V3.75C1 3.33579 1.33579 3 1.75 3ZM12.5 7.5C11.9417 7.5 11.3933 7.54061 10.8576 7.61893C10.4478 7.67884 10.0669 7.39516 10.007 6.9853C9.94709 6.57545 10.2308 6.19462 10.6406 6.1347C11.248 6.04592 11.8689 6 12.5 6C12.8354 6 13.1679 6.01297 13.497 6.03845C14.1931 6.09233 14.8598 6.59912 14.9613 7.39113C14.9868 7.5908 15 7.79405 15 8C15 8.52313 14.9152 9.02773 14.7581 9.5C14.9152 9.97227 15 10.4769 15 11C15 11.206 14.9868 11.4092 14.9613 11.6089C14.8598 12.4009 14.1931 12.9077 13.497 12.9616C13.1679 12.987 12.8354 13 12.5 13C11.8689 13 11.248 12.9541 10.6406 12.8653C10.2308 12.8054 9.9471 12.4246 10.007 12.0147C10.0669 11.6048 10.4478 11.3212 10.8576 11.3811C11.3933 11.4594 11.9417 11.5 12.5 11.5C12.7967 11.5 13.0906 11.4885 13.3813 11.466C13.4196 11.4631 13.4471 11.4483 13.4615 11.4357C13.4681 11.4298 13.4718 11.4238 13.4718 11.4238L13.4728 11.4213L13.4734 11.4182C13.4909 11.2816 13.5 11.142 13.5 11C13.5 10.7413 13.4699 10.4903 13.4132 10.25H11.7501C11.3359 10.25 11.0001 9.91421 11.0001 9.5C11.0001 9.08579 11.3359 8.75 11.7501 8.75H13.4132C13.4699 8.5097 13.5 8.2587 13.5 8C13.5 7.85797 13.4909 7.71841 13.4734 7.58181C13.473 7.57859 13.4718 7.57619 13.4718 7.57619C13.4718 7.57619 13.4681 7.57018 13.4615 7.56434C13.4471 7.5517 13.4196 7.53694 13.3813 7.53397C13.0906 7.51147 12.7967 7.5 12.5 7.5Z" fill="black"/>
</svg>

<svg xmlns="http://www.w3.org/2000/svg" viewBox="0 0 16 16" fill="currentColor" aria-hidden="true" data-slot="icon">
  <path fill-rule="evenodd" d="M1.75 3a.75.75 0 0 1 .75.75v3.5h4v-3.5a.75.75 0 0 1 1.5 0v8.5a.75.75 0 0 1-1.5 0v-3.5h-4v3.5a.75.75 0 0 1-1.5 0v-8.5A.75.75 0 0 1 1.75 3ZM12.5 7.5c-.558 0-1.107.04-1.642.119a.75.75 0 0 1-.217-1.484 12.851 12.851 0 0 1 2.856-.097c.696.054 1.363.561 1.464 1.353a4.805 4.805 0 0 1-.203 2.109 4.745 4.745 0 0 1 .203 2.109c-.101.792-.768 1.299-1.464 1.353a12.955 12.955 0 0 1-2.856-.097.75.75 0 0 1 .217-1.484 11.351 11.351 0 0 0 2.523.085.14.14 0 0 0 .08-.03c.007-.006.01-.012.01-.012l.002-.003v-.003a3.29 3.29 0 0 0-.06-1.168H11.75a.75.75 0 0 1 0-1.5h1.663a3.262 3.262 0 0 0 .06-1.168l-.001-.006-.01-.012a.14.14 0 0 0-.08-.03c-.291-.023-.585-.034-.882-.034Z" clip-rule="evenodd"/>
</svg>
